X: 350
T: The Limping Maid
%R: hornpipe, reel
Z: 2014 John Chambers <jc:trillian.mit.edu>
B: Preston "Twenty four Country Dances for the Year 1798" p.155 #2
F: http://www.vwml.org/browse/browse-collections-dance-tune-books/browse-prestons1798# 2014-8-10
M: 2/4
L: 1/8
K: G
|:\
G2 G>A | (G>D) (G>B) | (A>B) (c>A) | (GF) (ED) |\
G2 (G>A) | (G>D) (G>B) | (A>c) (A>F) | G4 :|
|:\
G2 (g>f) | (g>a) (g>e) | (cA) .A.A | (BG) .G.G |\
G2 (g>f) | (g>a) (g>e) | (c>A) (A>B) | G2 G2 :|
% - - - - - - - - - - - - - - - - - - - - - - - - -
%%begintext align
%% 1st Cu: set to the 2d Lady, and hands 3 round
%% set to the 2d Gent: and hands 3 round, lead
%% down two Cu: up again 1 Cu: hands 4 at top.
%%endtext
% - - - - - - - - - - - - - - - - - - - - - - - - -

%%sep 1 1 500
%%sep 1 1 500
